styles/icons/bars.svg

<?xml version="1.0" encoding="UTF-8"?>
<svg width="24px" height="24px" viewBox="0 0 24 24" version="1.1" xmlns="http://www.w3.org/2000/svg" xmlns:xlink="http://www.w3.org/1999/xlink">
    <!-- Generator: Sketch 48.1 (47250) - http://www.bohemiancoding.com/sketch -->
    <title>Icon/menu/bars</title>
    <desc>Created with Sketch.</desc>
    <defs>
        <path d="M5,6.50468445 C5,6.22595492 5.21990657,6 5.49826741,6 L18.5017326,6 C18.7769181,6 19,6.21403503 19,6.50468445 L19,7.49531555 C19,7.77404508 18.7800934,8 18.5017326,8 L5.49826741,8 C5.22308192,8 5,7.78596497 5,7.49531555 L5,6.50468445 Z M5,11.5046844 C5,11.2259549 5.21990657,11 5.49826741,11 L18.5017326,11 C18.7769181,11 19,11.214035 19,11.5046844 L19,12.4953156 C19,12.7740451 18.7800934,13 18.5017326,13 L5.49826741,13 C5.22308192,13 5,12.785965 5,12.4953156 L5,11.5046844 Z M5,16.5046844 C5,16.2259549 5.21990657,16 5.49826741,16 L18.5017326,16 C18.7769181,16 19,16.214035 19,16.5046844 L19,17.4953156 C19,17.7740451 18.7800934,18 18.5017326,18 L5.49826741,18 C5.22308192,18 5,17.785965 5,17.4953156 L5,16.5046844 Z" id="path-1"></path>
    </defs>
    <g id="Core/Icons" stroke="none" stroke-width="1" fill="none" fill-rule="evenodd" transform="translate(-140.000000, -1060.000000)">
        <g id="Menu" transform="translate(60.000000, 774.000000)">
            <g id="Icon/menu/bars-a01" transform="translate(80.000000, 286.000000)">
                <mask id="mask-2" fill="white">
                    <use xlink:href="#path-1"></use>
                </mask>
                <use id="Icon" fill="#333333" fill-rule="evenodd" xlink:href="#path-1"></use>
            </g>
        </g>
    </g>
</svg>

<svg fill="#333333" height="24" width="24" viewBox="0 0 24 24" xmlns="http://www.w3.org/2000/svg">
    <path d="M5,6.5C5,6.2,5.2,6,5.5,6h13C18.8,6,19,6.2,19,6.5v1C19,7.8,18.8,8,18.5,8h-13C5.2,8,5,7.8,5,7.5V6.5z M5,11.5C5,11.2,5.2,11,5.5,11h13c0.3,0,0.5,0.2,0.5,0.5v1c0,0.3-0.2,0.5-0.5,0.5h-13C5.2,13,5,12.8,5,12.5V11.5z M5,16.5C5,16.2,5.2,16,5.5,16h13c0.3,0,0.5,0.2,0.5,0.5v1c0,0.3-0.2,0.5-0.5,0.5h-13C5.2,18,5,17.8,5,17.5V16.5z"/>
</svg>
